dist/svg/static/recommended-destination-small.svg

<svg xmlns="http://www.w3.org/2000/svg" width="24" height="24" viewBox="0 0 24 24"><g stroke="currentColor" stroke-miterlimit="10"><path fill="none" d="M1.5 1v22M10.5 15.5l-1-1h-6v-13h8l1 1h6V8"/><path d="M8.5 6.5h5v4h-5zM3.5 1.5h4v4h-4zM14.5 2.5h4v3h-4zM3.5 11.5h4v3h-4z"/><g fill="none"><path d="M17 18l-.5-1.5c-1.16-.686-2-1.546-2-3 0-2.182 1.834-4 4-4 2.167 0 4 1.818 4 4 0 1.44-.858 2.31-2 3L20 18M20 19.5h-3M20 21.5h-3M18 23.5h1"/></g></g></svg>

<?xml version="1.0" encoding="UTF-8" standalone="no"?>
<svg width="24px" height="25px" viewBox="0 0 24 25" version="1.1" xmlns="http://www.w3.org/2000/svg" xmlns:xlink="http://www.w3.org/1999/xlink">
    <!-- Generator: sketchtool 46.2 (44496) - http://www.bohemiancoding.com/sketch -->
    <title>recommended-destination-small</title>
    <desc>Created with sketchtool.</desc>
    <defs></defs>
    <g id="icons-published" stroke="none" stroke-width="1" fill="none" fill-rule="evenodd">
        <g id="briefing" transform="translate(-2372.000000, -1434.000000)"></g>
        <g id="recommended-destination-small" stroke="#000000">
            <path d="M1.5,1 L1.5,23 M10.5,15.5 L9.5,14.5 L3.5,14.5 L3.5,1.5 L11.5,1.5 L12.5,2.5 L18.5,2.5 L18.5,8" id="Shape"></path>
            <path d="M8.5,6.5 L13.5,6.5 L13.5,10.5 L8.5,10.5 L8.5,6.5 Z M3.5,1.5 L7.5,1.5 L7.5,5.5 L3.5,5.5 L3.5,1.5 Z M14.5,2.5 L18.5,2.5 L18.5,5.5 L14.5,5.5 L14.5,2.5 Z M3.5,11.5 L7.5,11.5 L7.5,14.5 L3.5,14.5 L3.5,11.5 Z" id="Shape" fill="#000000" fill-rule="nonzero"></path>
            <path d="M17,18 L16.5,16.5 C15.3,15.8 14.5,15 14.5,13.5 C14.5,11.3 16.3,9.5 18.5,9.5 C20.7,9.5 22.5,11.3 22.5,13.5 C22.5,14.9 21.6,15.8 20.5,16.5 L20,18 M20,19.5 L17,19.5 M20,21.5 L17,21.5 M18,23.5 L19,23.5" id="Shape"></path>
        </g>
    </g>
</svg>
